X:80
T:The Carraroe Jig
C:Trad.
D:"Cooley", track 11b
M:6/8
R:jig
K:D
DED ~F2A|dfe ~d2A|BAF Adf|afd ~e2f|
DED ~F2A|dfe ~d2A|(3BcdB AFA|1 A,DF ~E2F:|2 dAF ~E2D||
dfa afa|bge edB|dfa afa|bge ~e2f|
dfa afa|bge edB|~d2B AFA|1 A,DF ~E2D:|2 dAF ~E2F||
